Newaita-dark/apps/48/wmtweaks.svg

<svg height="48" viewBox="0 0 48 48" width="48" xmlns="http://www.w3.org/2000/svg" xmlns:xlink="http://www.w3.org/1999/xlink"><linearGradient id="a" gradientUnits="userSpaceOnUse" x1="23.81478" x2="23.81478" y1="42.0509015" y2="44.03546750005"><stop offset="0" stop-opacity=".27451"/><stop offset="1" stop-opacity="0"/></linearGradient><linearGradient id="b"><stop offset="0" stop-opacity=".313726"/><stop offset=".222222" stop-opacity=".27451"/><stop offset="1" stop-opacity="0"/></linearGradient><radialGradient id="c" cx="450.908936" cy="189.579361" gradientTransform="matrix(.00000026 -.117199 -.210958 -.00000015 80.180537 95.392996)" gradientUnits="userSpaceOnUse" r="21.166656" xlink:href="#b"/><radialGradient id="d" cx="450.908936" cy="189.579361" gradientTransform="matrix(-.00000026 .117199 .210958 .00000015 -32.550992 -11.291221)" gradientUnits="userSpaceOnUse" r="21.166656" xlink:href="#b"/><radialGradient id="e" cx="450.908936" cy="189.579361" gradientTransform="matrix(-.00000026 -.117199 .210958 -.00000015 -32.550992 95.392996)" gradientUnits="userSpaceOnUse" r="21.166656" xlink:href="#b"/><radialGradient id="f" cx="450.908936" cy="189.579361" gradientTransform="matrix(.00000026 .117199 -.210958 .00000015 80.180534 -11.291222)" gradientUnits="userSpaceOnUse" r="21.166656" xlink:href="#b"/><linearGradient id="g" gradientTransform="matrix(.113024 0 0 .326118 -8.78102 50.462022)" gradientUnits="userSpaceOnUse" x1="306.916656" x2="305.954559" y1="-25.791676" y2="-135.329163"><stop offset="0" stop-color="#bdbdbd"/><stop offset="1" stop-color="#e0e0e0"/></linearGradient><linearGradient id="h" gradientUnits="userSpaceOnUse" x1="35.22600847489" x2="35.22600847489" y1="42.05128007505" y2="24.189809125"><stop offset="0" stop-color="#ff7043"/><stop offset="1" stop-color="#ff8a65"/></linearGradient><linearGradient id="i" gradientTransform="matrix(4.556143 0 0 13.146184 -353.972656 2034.180176)" gradientUnits="userSpaceOnUse" x1="306.916656" x2="305.954559" y1="-25.791676" y2="-135.329163"><stop offset="0" stop-color="#424242"/><stop offset="1" stop-color="#616161"/></linearGradient><linearGradient id="j" gradientUnits="userSpaceOnUse" x1="333.37491775" x2="333.37491775" y1="-121.04159691667" y2="-89.29164325"><stop offset="0" stop-color="#66bb6a"/><stop offset="1" stop-color="#81c784"/></linearGradient><linearGradient id="k" gradientUnits="userSpaceOnUse" x1="386.29151025" x2="386.29151025" y1="-121.04167408333" y2="-89.29163575"><stop offset="0" stop-color="#ffd54f"/><stop offset="1" stop-color="#ffe082"/></linearGradient><linearGradient id="l" gradientUnits="userSpaceOnUse" x1="439.208298" x2="439.208298" y1="-121.041682" y2="-89.291686"><stop offset="0" stop-color="#e57373"/><stop offset="1" stop-color="#ef9a9a"/></linearGradient><path d="m6.945312 42.050781h33.738282v1.984375h-33.738282zm0 0" fill="url(#a)"/><path d="m40.683594 42.050781h3.96875v-1.984375h-3.96875zm0 0" fill="url(#c)"/><path d="m6.945312 42.050781h-3.96875v1.984375h3.96875zm0 0" fill="url(#d)"/><path d="m6.945312 42.050781h-3.96875v-1.984375h3.96875zm0 0" fill="url(#e)"/><path d="m40.683594 42.050781h3.96875v1.984375h-3.96875zm0 0" fill="url(#f)"/><path d="m4.960938 6.328125h37.707031c1.097656 0 1.984375.890625 1.984375 1.984375v31.753906c0 1.097656-.886719 1.984375-1.984375 1.984375h-37.707031c-1.09375 0-1.984376-.886719-1.984376-1.984375v-31.753906c0-1.09375.890626-1.984375 1.984376-1.984375zm0 0" fill="url(#g)"/><path d="m2.976562 14.265625h41.675782v.992187h-41.675782zm0 0" fill="#0a0d0e" fill-opacity=".235294"/><path d="m35.226562 24.191406c1.238282 0 1.882813 5.121094 2.886719 5.847656 1.003907.730469 6.074219-.238281 6.457031.9375.382813 1.179688-4.289062 3.375-4.671874 4.554688-.382813 1.179688 2.105468 5.703125 1.101562 6.429688-1.003906.730468-4.535156-3.035157-5.773438-3.035157-1.238281 0-4.773437 3.765625-5.773437 3.035157-1.003906-.726563 1.484375-5.25 1.101563-6.429688-.382813-1.179688-5.054688-3.375-4.671876-4.554688.382813-1.175781 5.453126-.207031 6.457032-.9375 1-.726562 1.648437-5.847656 2.886718-5.847656zm0 0" fill="url(#h)"/><path d="m4.960938 42.070312c-1.097657 0-1.984376-.886718-1.984376-1.984374v-.515626c0 1.097657.886719 1.984376 1.984376 1.984376h37.707031c1.101562 0 1.984375-.886719 1.984375-1.984376v.515626c0 1.097656-.882813 1.984374-1.984375 1.984374zm0 0" fill-opacity=".235294"/><path d="m199.980913 255.093763c-44.247745 0-79.992365 35.74462-79.992365 79.992366v239.977096h1679.997137v-239.977096c0-44.247746-35.587155-79.992366-79.992365-79.992366zm0 0" fill="url(#i)" stroke="#212121" stroke-linecap="round" stroke-width="11.338583" transform="scale(.0248071)"/><path d="m4.960938 6.441406c-1.097657 0-1.984376.886719-1.984376 1.988282v.515624c0-1.101562.886719-1.984374 1.984376-1.984374h37.707031c1.101562 0 1.984375.882812 1.984375 1.984374v-.515624c0-1.101563-.882813-1.988282-1.984375-1.988282zm0 0" fill="#fff" fill-opacity=".392157"/><path d="m4.960938 6.1875c-1.175782 0-2.125.949219-2.125 2.125v31.753906c0 1.175782.949218 2.125 2.125 2.125h37.707031c1.175781 0 2.125-.949218 2.125-2.125v-31.753906c0-1.175781-.949219-2.125-2.125-2.125zm0 .28125h37.707031c1.023437 0 1.84375.820312 1.84375 1.84375v31.753906c0 1.023438-.820313 1.84375-1.84375 1.84375h-37.707031c-1.023438 0-1.84375-.820312-1.84375-1.84375v-31.753906c0-1.023438.820312-1.84375 1.84375-1.84375zm0 0" fill="#212121"/><g stroke="#212121" stroke-linecap="round" stroke-width="3" transform="matrix(.093759 0 0 .093759 0 20.158175)"><path d="m333.38483-121.050638c8.749165 0 15.873484 7.124319 15.873484 15.873484 0 8.790827-7.124319 15.873484-15.873484 15.873484-8.790827 0-15.873484-7.082657-15.873484-15.873484 0-8.749165 7.082657-15.873484 15.873484-15.873484zm0 0" fill="url(#j)"/><path d="m386.296444-121.050638c8.749164 0 15.873484 7.124319 15.873484 15.873484 0 8.790827-7.12432 15.873484-15.873484 15.873484-8.790827 0-15.873484-7.082657-15.873484-15.873484 0-8.749165 7.082657-15.873484 15.873484-15.873484zm0 0" fill="url(#k)"/><path d="m439.208058-121.050638c8.749164 0 15.873484 7.124319 15.873484 15.873484 0 8.790827-7.12432 15.873484-15.873484 15.873484-8.749165 0-15.873484-7.082657-15.873484-15.873484 0-8.749165 7.124319-15.873484 15.873484-15.873484zm0 0" fill="url(#l)"/></g><path d="m35.226562 24.191406c-1.238281 0-1.886718 5.121094-2.886718 5.847656-1.003906.730469-6.074219-.238281-6.457032.9375-.039062.128907-.023437.265626.039063.410157.601563-1.042969 5.441406-.140625 6.417969-.851563 1-.726562 1.648437-5.847656 2.886718-5.847656 1.238282 0 1.882813 5.121094 2.886719 5.847656.976563.710938 5.816407-.191406 6.417969.851563.0625-.144531.078125-.28125.039062-.410157-.382812-1.175781-5.453124-.207031-6.457031-.9375-1.003906-.726562-1.648437-5.847656-2.886719-5.847656zm-4.671874 12.078125c-.246094 1.46875-1.492188 4.121094-1.328126 5.253907.132813-1.289063 1.113282-3.472657 1.328126-4.757813v.007813c.007812.023437.015624.054687.023437.085937.027344-.238281.023437-.4375-.023437-.582031 0-.003906 0-.003906 0-.007813zm9.34375 0v.007813c-.046876.144531-.050782.34375-.023438.582031.007812-.03125.015625-.0625.023438-.085937 0-.003907 0-.003907 0-.007813.214843 1.285156 1.195312 3.46875 1.328124 4.757813.164063-1.132813-1.082031-3.785157-1.328124-5.253907zm0 0" fill="#fff" fill-opacity=".392157"/><path d="m26.082031 31.613281c-.097656.074219-.164062.160157-.199219.261719-.375 1.15625 4.117188 3.292969 4.644532 4.488281.074218-.367187.09375-.671875.027344-.875-.316407-.980469-3.585938-2.65625-4.472657-3.875zm18.289063 0c-.886719 1.21875-4.15625 2.894531-4.472656 3.875-.066407.203125-.046876.507813.023437.875.53125-1.195312 5.023437-3.332031 4.648437-4.488281-.035156-.101562-.101562-.1875-.199218-.261719zm-9.144532 7.265625c-1.238281 0-4.773437 3.765625-5.773437 3.039063-.089844-.066407-.148437-.15625-.1875-.269531-.023437.140624-.042969.277343-.050781.402343h2.421875c1.335937-.925781 2.859375-2.226562 3.589843-2.226562.730469 0 2.253907 1.300781 3.589844 2.226562h2.417969c-.007813-.125-.023437-.261719-.046875-.402343-.039062.113281-.101562.203124-.1875.269531-1.003906.726562-4.535156-3.039063-5.773438-3.039063zm0 0" fill-opacity=".235294"/><path d="m375.714121 43.017027c13.207072 0 20.081416 54.619784 30.788727 62.369044 10.70731 7.790923 64.78548-2.541424 68.868423 9.999045 4.082943 12.582132-45.745632 35.996563-49.828575 48.578695s22.456189 60.827524 11.748878 68.576784c-10.707311 7.790923-48.370381-32.371908-61.577453-32.371908s-50.911805 40.162831-61.577453 32.371908c-10.707311-7.74926 15.831822-55.994652 11.748878-68.576784-4.082943-12.582132-53.911518-35.996563-49.828575-48.578695 4.082944-12.540469 58.161113-2.208122 68.868424-9.999045 10.665648-7.74926 17.581654-62.369044 30.788726-62.369044zm0 0" fill="none" stroke="#212121" stroke-linecap="round" stroke-linejoin="round" stroke-width="3" transform="matrix(.093759 0 0 .093759 0 20.158175)"/></svg>

<?xml version="1.0" encoding="UTF-8"?>
<svg xmlns="http://www.w3.org/2000/svg" xmlns:xlink="http://www.w3.org/1999/xlink" width="48px" height="48px" viewBox="0 0 48 48" version="1.1">
<defs>
<linearGradient id="linear0" gradientUnits="userSpaceOnUse" x1="254" y1="233.5" x2="254" y2="254.666672" gradientTransform="matrix(0.093759,0,0,0.093759,-0.00000572259,20.158175)">
<stop offset="0" style="stop-color:rgb(0%,0%,0%);stop-opacity:0.27451;"/>
<stop offset="1" style="stop-color:rgb(0%,0%,0%);stop-opacity:0;"/>
</linearGradient>
<radialGradient id="radial0" gradientUnits="userSpaceOnUse" cx="450.908936" cy="189.579361" fx="450.908936" fy="189.579361" r="21.166656" gradientTransform="matrix(0.000000261256,-0.117199,-0.210958,-0.000000152308,80.180537,95.392996)">
<stop offset="0" style="stop-color:rgb(0%,0%,0%);stop-opacity:0.313726;"/>
<stop offset="0.222222" style="stop-color:rgb(0%,0%,0%);stop-opacity:0.27451;"/>
<stop offset="1" style="stop-color:rgb(0%,0%,0%);stop-opacity:0;"/>
</radialGradient>
<radialGradient id="radial1" gradientUnits="userSpaceOnUse" cx="450.908936" cy="189.579361" fx="450.908936" fy="189.579361" r="21.166656" gradientTransform="matrix(-0.000000261256,0.117199,0.210958,0.000000152308,-32.550992,-11.291221)">
<stop offset="0" style="stop-color:rgb(0%,0%,0%);stop-opacity:0.313726;"/>
<stop offset="0.222222" style="stop-color:rgb(0%,0%,0%);stop-opacity:0.27451;"/>
<stop offset="1" style="stop-color:rgb(0%,0%,0%);stop-opacity:0;"/>
</radialGradient>
<radialGradient id="radial2" gradientUnits="userSpaceOnUse" cx="450.908936" cy="189.579361" fx="450.908936" fy="189.579361" r="21.166656" gradientTransform="matrix(-0.000000261256,-0.117199,0.210958,-0.000000152308,-32.550992,95.392996)">
<stop offset="0" style="stop-color:rgb(0%,0%,0%);stop-opacity:0.313726;"/>
<stop offset="0.222222" style="stop-color:rgb(0%,0%,0%);stop-opacity:0.27451;"/>
<stop offset="1" style="stop-color:rgb(0%,0%,0%);stop-opacity:0;"/>
</radialGradient>
<radialGradient id="radial3" gradientUnits="userSpaceOnUse" cx="450.908936" cy="189.579361" fx="450.908936" fy="189.579361" r="21.166656" gradientTransform="matrix(0.000000261256,0.117199,-0.210958,0.000000152308,80.180534,-11.291222)">
<stop offset="0" style="stop-color:rgb(0%,0%,0%);stop-opacity:0.313726;"/>
<stop offset="0.222222" style="stop-color:rgb(0%,0%,0%);stop-opacity:0.27451;"/>
<stop offset="1" style="stop-color:rgb(0%,0%,0%);stop-opacity:0;"/>
</radialGradient>
<linearGradient id="linear1" gradientUnits="userSpaceOnUse" x1="306.916656" y1="-25.791676" x2="305.954559" y2="-135.329163" gradientTransform="matrix(0.113024,0,0,0.326118,-8.78102,50.462022)">
<stop offset="0" style="stop-color:rgb(74.117649%,74.117649%,74.117649%);stop-opacity:1;"/>
<stop offset="1" style="stop-color:rgb(87.843138%,87.843138%,87.843138%);stop-opacity:1;"/>
</linearGradient>
<linearGradient id="linear2" gradientUnits="userSpaceOnUse" x1="370.416656" y1="222.916672" x2="370.416656" y2="11.25" gradientTransform="matrix(0.0843849,0,0,0.0843849,3.968436,23.240479)">
<stop offset="0" style="stop-color:rgb(100%,43.921569%,26.274511%);stop-opacity:1;"/>
<stop offset="1" style="stop-color:rgb(100%,54.11765%,39.607844%);stop-opacity:1;"/>
</linearGradient>
<linearGradient id="linear3" gradientUnits="userSpaceOnUse" x1="306.916656" y1="-25.791676" x2="305.954559" y2="-135.329163" gradientTransform="matrix(4.556143,0,0,13.146184,-353.972656,2034.180176)">
<stop offset="0" style="stop-color:rgb(25.882354%,25.882354%,25.882354%);stop-opacity:1;"/>
<stop offset="1" style="stop-color:rgb(38.039216%,38.039216%,38.039216%);stop-opacity:1;"/>
</linearGradient>
<linearGradient id="linear4" gradientUnits="userSpaceOnUse" x1="349.25" y1="-158.083328" x2="349.25" y2="-115.75" gradientTransform="matrix(0.749999,0,0,0.749999,71.437767,-2.479259)">
<stop offset="0" style="stop-color:rgb(40.000001%,73.333335%,41.568628%);stop-opacity:1;"/>
<stop offset="1" style="stop-color:rgb(50.588238%,78.039217%,51.764709%);stop-opacity:1;"/>
</linearGradient>
<linearGradient id="linear5" gradientUnits="userSpaceOnUse" x1="349.25" y1="-158.083328" x2="349.25" y2="-115.75" gradientTransform="matrix(0.750001,0,0,0.750001,124.353661,-2.47902)">
<stop offset="0" style="stop-color:rgb(100%,83.529413%,30.980393%);stop-opacity:1;"/>
<stop offset="1" style="stop-color:rgb(100%,87.843138%,50.980395%);stop-opacity:1;"/>
</linearGradient>
<linearGradient id="linear6" gradientUnits="userSpaceOnUse" x1="349.25" y1="-158.083328" x2="349.25" y2="-115.75" gradientTransform="matrix(0.75,0,0,0.75,177.270798,-2.479186)">
<stop offset="0" style="stop-color:rgb(89.803922%,45.09804%,45.09804%);stop-opacity:1;"/>
<stop offset="1" style="stop-color:rgb(93.725491%,60.392159%,60.392159%);stop-opacity:1;"/>
</linearGradient>
</defs>
<g id="surface1">
<path style=" stroke:none;fill-rule:nonzero;fill:url(#linear0);" d="M 6.945312 42.050781 L 40.683594 42.050781 L 40.683594 44.035156 L 6.945312 44.035156 Z M 6.945312 42.050781 "/>
<path style=" stroke:none;fill-rule:nonzero;fill:url(#radial0);" d="M 40.683594 42.050781 L 44.652344 42.050781 L 44.652344 40.066406 L 40.683594 40.066406 Z M 40.683594 42.050781 "/>
<path style=" stroke:none;fill-rule:nonzero;fill:url(#radial1);" d="M 6.945312 42.050781 L 2.976562 42.050781 L 2.976562 44.035156 L 6.945312 44.035156 Z M 6.945312 42.050781 "/>
<path style=" stroke:none;fill-rule:nonzero;fill:url(#radial2);" d="M 6.945312 42.050781 L 2.976562 42.050781 L 2.976562 40.066406 L 6.945312 40.066406 Z M 6.945312 42.050781 "/>
<path style=" stroke:none;fill-rule:nonzero;fill:url(#radial3);" d="M 40.683594 42.050781 L 44.652344 42.050781 L 44.652344 44.035156 L 40.683594 44.035156 Z M 40.683594 42.050781 "/>
<path style=" stroke:none;fill-rule:nonzero;fill:url(#linear1);" d="M 4.960938 6.328125 L 42.667969 6.328125 C 43.765625 6.328125 44.652344 7.21875 44.652344 8.3125 L 44.652344 40.066406 C 44.652344 41.164062 43.765625 42.050781 42.667969 42.050781 L 4.960938 42.050781 C 3.867188 42.050781 2.976562 41.164062 2.976562 40.066406 L 2.976562 8.3125 C 2.976562 7.21875 3.867188 6.328125 4.960938 6.328125 Z M 4.960938 6.328125 "/>
<path style=" stroke:none;fill-rule:nonzero;fill:rgb(3.921569%,5.098039%,5.490196%);fill-opacity:0.235294;" d="M 2.976562 14.265625 L 44.652344 14.265625 L 44.652344 15.257812 L 2.976562 15.257812 Z M 2.976562 14.265625 "/>
<path style=" stroke:none;fill-rule:nonzero;fill:url(#linear2);" d="M 35.226562 24.191406 C 36.464844 24.191406 37.109375 29.3125 38.113281 30.039062 C 39.117188 30.769531 44.1875 29.800781 44.570312 30.976562 C 44.953125 32.15625 40.28125 34.351562 39.898438 35.53125 C 39.515625 36.710938 42.003906 41.234375 41 41.960938 C 39.996094 42.691406 36.464844 38.925781 35.226562 38.925781 C 33.988281 38.925781 30.453125 42.691406 29.453125 41.960938 C 28.449219 41.234375 30.9375 36.710938 30.554688 35.53125 C 30.171875 34.351562 25.5 32.15625 25.882812 30.976562 C 26.265625 29.800781 31.335938 30.769531 32.339844 30.039062 C 33.339844 29.3125 33.988281 24.191406 35.226562 24.191406 Z M 35.226562 24.191406 "/>
<path style=" stroke:none;fill-rule:nonzero;fill:rgb(0%,0%,0%);fill-opacity:0.235294;" d="M 4.960938 42.070312 C 3.863281 42.070312 2.976562 41.183594 2.976562 40.085938 L 2.976562 39.570312 C 2.976562 40.667969 3.863281 41.554688 4.960938 41.554688 L 42.667969 41.554688 C 43.769531 41.554688 44.652344 40.667969 44.652344 39.570312 L 44.652344 40.085938 C 44.652344 41.183594 43.769531 42.070312 42.667969 42.070312 Z M 4.960938 42.070312 "/>
<path style="fill-rule:nonzero;fill:url(#linear3);stroke-width:11.338583;stroke-linecap:round;stroke-linejoin:miter;stroke:rgb(12.941177%,12.941177%,12.941177%);stroke-opacity:1;stroke-miterlimit:4;" d="M 199.980913 255.093763 C 155.733168 255.093763 119.988548 290.838383 119.988548 335.086129 L 119.988548 575.063225 L 1799.985685 575.063225 L 1799.985685 335.086129 C 1799.985685 290.838383 1764.39853 255.093763 1719.99332 255.093763 Z M 199.980913 255.093763 " transform="matrix(0.0248071,0,0,0.0248071,0,0)"/>
<path style=" stroke:none;fill-rule:nonzero;fill:rgb(100%,100%,100%);fill-opacity:0.392157;" d="M 4.960938 6.441406 C 3.863281 6.441406 2.976562 7.328125 2.976562 8.429688 L 2.976562 8.945312 C 2.976562 7.84375 3.863281 6.960938 4.960938 6.960938 L 42.667969 6.960938 C 43.769531 6.960938 44.652344 7.84375 44.652344 8.945312 L 44.652344 8.429688 C 44.652344 7.328125 43.769531 6.441406 42.667969 6.441406 Z M 4.960938 6.441406 "/>
<path style=" stroke:none;fill-rule:nonzero;fill:rgb(12.941177%,12.941177%,12.941177%);fill-opacity:1;" d="M 4.960938 6.1875 C 3.785156 6.1875 2.835938 7.136719 2.835938 8.3125 L 2.835938 40.066406 C 2.835938 41.242188 3.785156 42.191406 4.960938 42.191406 L 42.667969 42.191406 C 43.84375 42.191406 44.792969 41.242188 44.792969 40.066406 L 44.792969 8.3125 C 44.792969 7.136719 43.84375 6.1875 42.667969 6.1875 Z M 4.960938 6.46875 L 42.667969 6.46875 C 43.691406 6.46875 44.511719 7.289062 44.511719 8.3125 L 44.511719 40.066406 C 44.511719 41.089844 43.691406 41.910156 42.667969 41.910156 L 4.960938 41.910156 C 3.9375 41.910156 3.117188 41.089844 3.117188 40.066406 L 3.117188 8.3125 C 3.117188 7.289062 3.9375 6.46875 4.960938 6.46875 Z M 4.960938 6.46875 "/>
<path style="fill-rule:nonzero;fill:url(#linear4);stroke-width:3;stroke-linecap:round;stroke-linejoin:miter;stroke:rgb(12.941177%,12.941177%,12.941177%);stroke-opacity:1;stroke-miterlimit:4;" d="M 333.38483 -121.050638 C 342.133995 -121.050638 349.258314 -113.926319 349.258314 -105.177154 C 349.258314 -96.386327 342.133995 -89.30367 333.38483 -89.30367 C 324.594003 -89.30367 317.511346 -96.386327 317.511346 -105.177154 C 317.511346 -113.926319 324.594003 -121.050638 333.38483 -121.050638 Z M 333.38483 -121.050638 " transform="matrix(0.093759,0,0,0.093759,0,20.158175)"/>
<path style="fill-rule:nonzero;fill:url(#linear5);stroke-width:3;stroke-linecap:round;stroke-linejoin:miter;stroke:rgb(12.941177%,12.941177%,12.941177%);stroke-opacity:1;stroke-miterlimit:4;" d="M 386.296444 -121.050638 C 395.045608 -121.050638 402.169928 -113.926319 402.169928 -105.177154 C 402.169928 -96.386327 395.045608 -89.30367 386.296444 -89.30367 C 377.505617 -89.30367 370.42296 -96.386327 370.42296 -105.177154 C 370.42296 -113.926319 377.505617 -121.050638 386.296444 -121.050638 Z M 386.296444 -121.050638 " transform="matrix(0.093759,0,0,0.093759,0,20.158175)"/>
<path style="fill-rule:nonzero;fill:url(#linear6);stroke-width:3;stroke-linecap:round;stroke-linejoin:miter;stroke:rgb(12.941177%,12.941177%,12.941177%);stroke-opacity:1;stroke-miterlimit:4;" d="M 439.208058 -121.050638 C 447.957222 -121.050638 455.081542 -113.926319 455.081542 -105.177154 C 455.081542 -96.386327 447.957222 -89.30367 439.208058 -89.30367 C 430.458893 -89.30367 423.334574 -96.386327 423.334574 -105.177154 C 423.334574 -113.926319 430.458893 -121.050638 439.208058 -121.050638 Z M 439.208058 -121.050638 " transform="matrix(0.093759,0,0,0.093759,0,20.158175)"/>
<path style=" stroke:none;fill-rule:nonzero;fill:rgb(100%,100%,100%);fill-opacity:0.392157;" d="M 35.226562 24.191406 C 33.988281 24.191406 33.339844 29.3125 32.339844 30.039062 C 31.335938 30.769531 26.265625 29.800781 25.882812 30.976562 C 25.84375 31.105469 25.859375 31.242188 25.921875 31.386719 C 26.523438 30.34375 31.363281 31.246094 32.339844 30.535156 C 33.339844 29.808594 33.988281 24.6875 35.226562 24.6875 C 36.464844 24.6875 37.109375 29.808594 38.113281 30.535156 C 39.089844 31.246094 43.929688 30.34375 44.53125 31.386719 C 44.59375 31.242188 44.609375 31.105469 44.570312 30.976562 C 44.1875 29.800781 39.117188 30.769531 38.113281 30.039062 C 37.109375 29.3125 36.464844 24.191406 35.226562 24.191406 Z M 30.554688 36.269531 C 30.308594 37.738281 29.0625 40.390625 29.226562 41.523438 C 29.359375 40.234375 30.339844 38.050781 30.554688 36.765625 C 30.554688 36.769531 30.554688 36.769531 30.554688 36.773438 C 30.5625 36.796875 30.570312 36.828125 30.578125 36.859375 C 30.605469 36.621094 30.601562 36.421875 30.554688 36.277344 C 30.554688 36.273438 30.554688 36.273438 30.554688 36.269531 Z M 39.898438 36.269531 C 39.898438 36.273438 39.898438 36.273438 39.898438 36.277344 C 39.851562 36.421875 39.847656 36.621094 39.875 36.859375 C 39.882812 36.828125 39.890625 36.796875 39.898438 36.773438 C 39.898438 36.769531 39.898438 36.769531 39.898438 36.765625 C 40.113281 38.050781 41.09375 40.234375 41.226562 41.523438 C 41.390625 40.390625 40.144531 37.738281 39.898438 36.269531 Z M 39.898438 36.269531 "/>
<path style=" stroke:none;fill-rule:nonzero;fill:rgb(0%,0%,0%);fill-opacity:0.235294;" d="M 26.082031 31.613281 C 25.984375 31.6875 25.917969 31.773438 25.882812 31.875 C 25.507812 33.03125 30 35.167969 30.527344 36.363281 C 30.601562 35.996094 30.621094 35.691406 30.554688 35.488281 C 30.238281 34.507812 26.96875 32.832031 26.082031 31.613281 Z M 44.371094 31.613281 C 43.484375 32.832031 40.214844 34.507812 39.898438 35.488281 C 39.832031 35.691406 39.851562 35.996094 39.921875 36.363281 C 40.453125 35.167969 44.945312 33.03125 44.570312 31.875 C 44.535156 31.773438 44.46875 31.6875 44.371094 31.613281 Z M 35.226562 38.878906 C 33.988281 38.878906 30.453125 42.644531 29.453125 41.917969 C 29.363281 41.851562 29.304688 41.761719 29.265625 41.648438 C 29.242188 41.789062 29.222656 41.925781 29.214844 42.050781 L 31.636719 42.050781 C 32.972656 41.125 34.496094 39.824219 35.226562 39.824219 C 35.957031 39.824219 37.480469 41.125 38.816406 42.050781 L 41.234375 42.050781 C 41.226562 41.925781 41.210938 41.789062 41.1875 41.648438 C 41.148438 41.761719 41.085938 41.851562 41 41.917969 C 39.996094 42.644531 36.464844 38.878906 35.226562 38.878906 Z M 35.226562 38.878906 "/>
<path style="fill:none;stroke-width:3;stroke-linecap:round;stroke-linejoin:round;stroke:rgb(12.941177%,12.941177%,12.941177%);stroke-opacity:1;stroke-miterlimit:4;" d="M 375.714121 43.017027 C 388.921193 43.017027 395.795537 97.636811 406.502848 105.386071 C 417.210158 113.176994 471.288328 102.844647 475.371271 115.385116 C 479.454214 127.967248 429.625639 151.381679 425.542696 163.963811 C 421.459753 176.545943 447.998885 224.791335 437.291574 232.540595 C 426.584263 240.331518 388.921193 200.168687 375.714121 200.168687 C 362.507049 200.168687 324.802316 240.331518 314.136668 232.540595 C 303.429357 224.791335 329.96849 176.545943 325.885546 163.963811 C 321.802603 151.381679 271.974028 127.967248 276.056971 115.385116 C 280.139915 102.844647 334.218084 113.176994 344.925395 105.386071 C 355.591043 97.636811 362.507049 43.017027 375.714121 43.017027 Z M 375.714121 43.017027 " transform="matrix(0.093759,0,0,0.093759,0,20.158175)"/>
</g>
</svg>
